public/static/img/crypto1/BTC.svg

<svg width="32" height="32" viewBox="0 0 32 32" fill="none" xmlns="http://www.w3.org/2000/svg">
<g clip-path="url(#clip0_696_7385)">
<path d="M0.0300293 16.0063C0.0300293 18.1075 0.443882 20.1881 1.24796 22.1293C2.05203 24.0705 3.23058 25.8343 4.71632 27.3201C6.20206 28.8058 7.96589 29.9843 9.90709 30.7884C11.8483 31.5925 13.9289 32.0063 16.03 32.0063C18.1312 32.0063 20.2118 31.5925 22.153 30.7884C24.0942 29.9843 25.858 28.8058 27.3437 27.3201C28.8295 25.8343 30.008 24.0705 30.8121 22.1293C31.6162 20.1881 32.03 18.1075 32.03 16.0063C32.03 13.9052 31.6162 11.8246 30.8121 9.88341C30.008 7.9422 28.8295 6.17838 27.3437 4.69264C25.858 3.2069 24.0942 2.02835 22.153 1.22428C20.2118 0.4202 18.1312 0.00634766 16.03 0.00634766C13.9289 0.00634766 11.8483 0.4202 9.90709 1.22428C7.96589 2.02835 6.20206 3.2069 4.71632 4.69264C3.23058 6.17838 2.05203 7.9422 1.24796 9.88341C0.443882 11.8246 0.0300293 13.9052 0.0300293 16.0063Z" fill="#F7931A"/>
<path d="M20.3918 16.0732L20.2116 16.0249C21.7511 16.41 23.3351 15.4954 23.7491 13.9498C23.85 13.5777 23.8763 13.1893 23.8265 12.807C23.7768 12.4247 23.6519 12.056 23.4592 11.7221C23.2664 11.3882 23.0096 11.0958 22.7034 10.8615C22.3972 10.6273 22.0477 10.4559 21.675 10.3572L20.3743 10.0086L21.1473 7.12357L19.2927 6.62659L18.5197 9.5116L17.0327 9.1133L17.8071 6.22328L15.9497 5.72559L15.1752 8.6156L11.7711 7.70351L11.2294 9.72541L13.5992 10.3604L11.1214 19.6075L8.75164 18.9725L8.20996 20.9944L11.6141 21.9065L10.8132 24.8956L12.6707 25.3932L13.4715 22.4042L14.9586 22.8025L14.158 25.7905L16.0126 26.2875L16.8131 23.2995L18.3459 23.7103C20.4579 24.2763 22.63 23.0224 23.196 20.91C23.762 18.7977 22.5038 16.6392 20.3918 16.0732ZM16.6555 11.1105L17.9948 11.4695L18.8833 11.7076C19.2437 11.8042 19.5383 11.9937 19.77 12.2629C20.1765 12.703 20.3503 13.343 20.1844 13.9612C20.0189 14.5794 19.5483 15.0471 18.9763 15.2248C18.6412 15.342 18.2916 15.3588 17.9308 15.2623L17.0423 15.0242L15.703 14.6652L16.6555 11.1105ZM17.4617 20.8786C17.4195 20.8811 17.3938 20.8743 17.3552 20.8639L15.6036 20.3945L14.2642 20.0355L15.2167 16.4808L16.5561 16.8398L18.3077 17.3092C18.3463 17.3196 18.372 17.3264 18.4074 17.3496C19.3242 17.6367 19.8608 18.6225 19.6088 19.5628C19.3567 20.5031 18.3992 21.0884 17.4617 20.8786Z" fill="white"/>
</g>
<defs>
<clipPath id="clip0_696_7385">
<rect width="32" height="32" fill="white"/>
</clipPath>
</defs>
</svg>

<svg width="32" height="32" fill="none" xmlns="http://www.w3.org/2000/svg"><g clip-path="url(#a)"><path d="M.03 16.006a16 16 0 1 0 32 0 16 16 0 0 0-32 0Z" fill="#F7931A"/><path d="m20.392 16.073-.18-.048a2.928 2.928 0 0 0 1.463-5.668l-1.3-.348.772-2.885-1.854-.497-.773 2.885-1.487-.399.774-2.89-1.857-.497-.775 2.89-3.404-.912-.542 2.021 2.37.635-2.478 9.248-2.37-.636-.541 2.022 3.404.913-.8 2.989 1.857.497.8-2.989 1.488.398-.801 2.989 1.855.497.8-2.989 1.533.411a3.96 3.96 0 0 0 4.85-2.8 3.95 3.95 0 0 0-2.804-4.837Zm-3.736-4.963 1.339.36.888.238c.36.096.655.286.887.555.407.44.58 1.08.414 1.698a1.815 1.815 0 0 1-1.208 1.264 1.74 1.74 0 0 1-1.045.037l-.889-.238-1.339-.359.953-3.554Zm.806 9.769a.293.293 0 0 1-.107-.015l-1.751-.47-1.34-.358.953-3.555 1.34.359 1.75.47c.04.01.065.016.1.04.917.287 1.454 1.272 1.202 2.213-.252.94-1.21 1.525-2.147 1.316Z" fill="#fff"/></g><defs><clipPath id="a"><path fill="#fff" d="M0 0h32v32H0z"/></clipPath></defs></svg>
